projects/packages/my-jetpack/_inc/components/product-cards-section/protect-card/assets/shield-success.svg

<svg fill="none" height="25" viewBox="0 0 21 25" width="21" xmlns="http://www.w3.org/2000/svg"><g clip-rule="evenodd" fill-rule="evenodd"><path d="m10.1538.5 10.1539 4.45957v6.64803c0 5.6671-3.7669 11.0329-9.0788 12.7256-.6979.2224-1.45216.2224-2.15015 0-5.31181-1.6927-9.07875-7.0585-9.07875-12.7256v-6.64803z" fill="#069e08"/><path d="m15.4591 8.94752-6.47939 8.58208-4.10478-3.0059.9088-1.2037 2.88254 2.1108 5.57063-7.37831z" fill="#fff"/></g></svg>

<svg width="21" height="25" viewBox="0 0 21 25" fill="none" xmlns="http://www.w3.org/2000/svg">
<path fill-rule="evenodd" clip-rule="evenodd" d="M10.1538 0.5L20.3077 4.95957V11.6076C20.3077 17.2747 16.5408 22.6405 11.2289 24.3332C10.531 24.5556 9.77674 24.5556 9.07875 24.3332C3.76694 22.6405 0 17.2747 0 11.6076V4.95957L10.1538 0.5Z" fill="#069E08"/>
<path fill-rule="evenodd" clip-rule="evenodd" d="M15.4591 8.94752L8.97971 17.5296L4.87493 14.5237L5.78373 13.32L8.66627 15.4308L14.2369 8.05249L15.4591 8.94752Z" fill="white"/>
</svg>
